Numix-Circle/48x48/apps/rawstudio.svg

<?xml version="1.0" encoding="UTF-8" standalone="no"?>
<svg
   xmlns:dc="http://purl.org/dc/elements/1.1/"
   xmlns:cc="http://creativecommons.org/ns#"
   xmlns:rdf="http://www.w3.org/1999/02/22-rdf-syntax-ns#"
   xmlns:svg="http://www.w3.org/2000/svg"
   xmlns="http://www.w3.org/2000/svg"
   xmlns:sodipodi="http://sodipodi.sourceforge.net/DTD/sodipodi-0.dtd"
   xmlns:inkscape="http://www.inkscape.org/namespaces/inkscape"
   viewBox="0 0 48 48"
   id="svg2"
   version="1.1"
   inkscape:version="0.91 r13725"
   sodipodi:docname="rawstudio2.svg">
  <metadata
     id="metadata77">
    <rdf:RDF>
      <cc:Work
         rdf:about="">
        <dc:format>image/svg+xml</dc:format>
        <dc:type
           rdf:resource="http://purl.org/dc/dcmitype/StillImage" />
        <dc:title></dc:title>
      </cc:Work>
    </rdf:RDF>
  </metadata>
  <sodipodi:namedview
     pagecolor="#ffffff"
     bordercolor="#666666"
     borderopacity="1"
     objecttolerance="10"
     gridtolerance="10"
     guidetolerance="10"
     inkscape:pageopacity="0"
     inkscape:pageshadow="2"
     inkscape:window-width="1366"
     inkscape:window-height="713"
     id="namedview75"
     showgrid="false"
     showguides="false"
     inkscape:zoom="1.4142136"
     inkscape:cx="24.371453"
     inkscape:cy="13.349193"
     inkscape:window-x="0"
     inkscape:window-y="28"
     inkscape:window-maximized="1"
     inkscape:current-layer="svg2">
    <inkscape:grid
       type="xygrid"
       id="grid4205" />
  </sodipodi:namedview>
  <defs
     id="defs4" />
  <g
     id="g21">
    <path
       d="m 36.31 5 c 5.859 4.062 9.688 10.831 9.688 18.5 c 0 12.426 -10.07 22.5 -22.5 22.5 c -7.669 0 -14.438 -3.828 -18.5 -9.688 c 1.037 1.822 2.306 3.499 3.781 4.969 c 4.085 3.712 9.514 5.969 15.469 5.969 c 12.703 0 23 -10.298 23 -23 c 0 -5.954 -2.256 -11.384 -5.969 -15.469 c -1.469 -1.475 -3.147 -2.744 -4.969 -3.781 z m 4.969 3.781 c 3.854 4.113 6.219 9.637 6.219 15.719 c 0 12.703 -10.297 23 -23 23 c -6.081 0 -11.606 -2.364 -15.719 -6.219 c 4.16 4.144 9.883 6.719 16.219 6.719 c 12.703 0 23 -10.298 23 -23 c 0 -6.335 -2.575 -12.06 -6.719 -16.219 z"
       opacity="0.05"
       id="path23" />
    <path
       d="m 41.28 8.781 c 3.712 4.085 5.969 9.514 5.969 15.469 c 0 12.703 -10.297 23 -23 23 c -5.954 0 -11.384 -2.256 -15.469 -5.969 c 4.113 3.854 9.637 6.219 15.719 6.219 c 12.703 0 23 -10.298 23 -23 c 0 -6.081 -2.364 -11.606 -6.219 -15.719 z"
       opacity="0.1"
       id="path25" />
    <path
       d="m 31.25 2.375 c 8.615 3.154 14.75 11.417 14.75 21.13 c 0 12.426 -10.07 22.5 -22.5 22.5 c -9.708 0 -17.971 -6.135 -21.12 -14.75 a 23 23 0 0 0 44.875 -7 a 23 23 0 0 0 -16 -21.875 z"
       opacity="0.2"
       id="path27" />
  </g>
  <g
     id="g29">
    <path
       id="path4247"
       d="m 1,24 c 0,1.141731 0.08741,2.262245 0.248047,3.359375 A 11.5,11.5 0 0 0 12.5,36.5 11.5,11.5 0 0 0 24,25 L 24,1.0000005 C 11.297,1.0000005 1,11.297 1,24 Z"
       style="fill:#f5f473;fill-opacity:1"
       inkscape:connector-curvature="0" />
    <path
       style="fill:#f48b61;fill-opacity:1"
       d="M 24 1 C 22.858269 1 21.737755 1.0874135 20.640625 1.2480469 A 11.5 11.5 0 0 0 11.5 12.5 A 11.5 11.5 0 0 0 23 24 L 47 24 C 47 11.297 36.703 1 24 1 z "
       id="path4242" />
    <path
       inkscape:connector-curvature="0"
       style="fill:#afc6df;fill-opacity:1"
       d="m 47,24 c 0,-1.141731 -0.08741,-2.262245 -0.248047,-3.359375 A 11.5,11.5 0 0 0 35.5,11.5 11.5,11.5 0 0 0 24,23 l 0,24 C 36.703,47 47,36.703 47,24 Z"
       id="path4251" />
    <path
       style="fill:#7fe490;fill-opacity:1"
       d="M 1 24 C 1 36.703 11.297 47 24 47 C 25.141731 47 26.262245 46.91259 27.359375 46.751953 A 11.5 11.5 0 0 0 36.5 35.5 A 11.5 11.5 0 0 0 25 24 L 24 24 C 24 30.351275 18.851275 35.5 12.5 35.5 C 6.1487254 35.5 1 30.351275 1 24 z "
       id="path4249" />
  </g>
  <g
     id="g33" />
  <g
     id="g71">
    <path
       d="m 40.03 7.531 c 3.712 4.084 5.969 9.514 5.969 15.469 0 12.703 -10.297 23 -23 23 c -5.954 0 -11.384 -2.256 -15.469 -5.969 4.178 4.291 10.01 6.969 16.469 6.969 c 12.703 0 23 -10.298 23 -23 0 -6.462 -2.677 -12.291 -6.969 -16.469 z"
       opacity="0.1"
       id="path73" />
  </g>
  <g
     id="g4165">
    <circle
       style="opacity:1;fill:#000000;fill-opacity:0.09803922;fill-rule:nonzero;stroke:none;stroke-width:2;stroke-miterlimit:4;stroke-dasharray:none;stroke-dashoffset:0;stroke-opacity:1"
       id="circle4241"
       cx="25"
       cy="25"
       r="12" />
    <g
       id="g4161">
      <circle
         style="opacity:1;fill:#4b4b4b;fill-opacity:1;fill-rule:nonzero;stroke:none;stroke-width:2;stroke-miterlimit:4;stroke-dasharray:none;stroke-dashoffset:0;stroke-opacity:1"
         id="path4181"
         cx="24"
         cy="24"
         r="12" />
      <path
         inkscape:connector-curvature="0"
         style="opacity:1;fill:#dedede;fill-opacity:1;fill-rule:nonzero;stroke:none;stroke-width:2;stroke-miterlimit:4;stroke-dasharray:none;stroke-dashoffset:0;stroke-opacity:1"
         d="m 24,14 c -5.522847,0 -10,4.477153 -10,10 0,5.522847 4.477153,10 10,10 l 0,-12 a 3,3 0 0 1 -3,-3 3,3 0 0 1 3,-3 l 0,-2 z m 0,2 0,6 a 3,3 0 0 0 3,-3 3,3 0 0 0 -3,-3 z m -5,8 a 3,3 0 0 1 3,3 3,3 0 0 1 -3,3 3,3 0 0 1 -3,-3 3,3 0 0 1 3,-3 z m 10,0 a 3,3 0 0 0 -3,3 3,3 0 0 0 3,3 3,3 0 0 0 3,-3 3,3 0 0 0 -3,-3 z"
         id="circle4228" />
    </g>
  </g>
</svg>

<svg xmlns="http://www.w3.org/2000/svg" viewBox="0 0 48 48"><g><path d="m 36.31 5 c 5.859 4.062 9.688 10.831 9.688 18.5 c 0 12.426 -10.07 22.5 -22.5 22.5 c -7.669 0 -14.438 -3.828 -18.5 -9.688 c 1.037 1.822 2.306 3.499 3.781 4.969 c 4.085 3.712 9.514 5.969 15.469 5.969 c 12.703 0 23 -10.298 23 -23 c 0 -5.954 -2.256 -11.384 -5.969 -15.469 c -1.469 -1.475 -3.147 -2.744 -4.969 -3.781 z m 4.969 3.781 c 3.854 4.113 6.219 9.637 6.219 15.719 c 0 12.703 -10.297 23 -23 23 c -6.081 0 -11.606 -2.364 -15.719 -6.219 c 4.16 4.144 9.883 6.719 16.219 6.719 c 12.703 0 23 -10.298 23 -23 c 0 -6.335 -2.575 -12.06 -6.719 -16.219 z" opacity="0.05"/><path d="m 41.28 8.781 c 3.712 4.085 5.969 9.514 5.969 15.469 c 0 12.703 -10.297 23 -23 23 c -5.954 0 -11.384 -2.256 -15.469 -5.969 c 4.113 3.854 9.637 6.219 15.719 6.219 c 12.703 0 23 -10.298 23 -23 c 0 -6.081 -2.364 -11.606 -6.219 -15.719 z" opacity="0.1"/><path d="m 31.25 2.375 c 8.615 3.154 14.75 11.417 14.75 21.13 c 0 12.426 -10.07 22.5 -22.5 22.5 c -9.708 0 -17.971 -6.135 -21.12 -14.75 a 23 23 0 0 0 44.875 -7 a 23 23 0 0 0 -16 -21.875 z" opacity="0.2"/></g><g><path d="m 1 24 c 0 1.142 0.087 2.262 0.248 3.359 a 11.5 11.5 0 0 0 11.252 9.141 11.5 11.5 0 0 0 11.5 -11.5 l 0 -24 c -12.703 0 -23 10.297 -23 23" fill="#f5f473" fill-opacity="1"/><path d="m 24 1 c -1.142 0 -2.262 0.087 -3.359 0.248 a 11.5 11.5 0 0 0 -9.141 11.252 a 11.5 11.5 0 0 0 11.5 11.5 l 24 0 c 0 -12.703 -10.297 -23 -23 -23 z" fill="#f48b61" fill-opacity="1"/><path d="m 47 24 c 0 -1.142 -0.087 -2.262 -0.248 -3.359 a 11.5 11.5 0 0 0 -11.252 -9.141 11.5 11.5 0 0 0 -11.5 11.5 l 0 24 c 12.703 0 23 -10.297 23 -23" fill="#afc6df" fill-opacity="1"/><path d="m 1 24 c 0 12.703 10.297 23 23 23 c 1.142 0 2.262 -0.087 3.359 -0.248 a 11.5 11.5 0 0 0 9.141 -11.252 a 11.5 11.5 0 0 0 -11.5 -11.5 l -1 0 c 0 6.351 -5.149 11.5 -11.5 11.5 c -6.351 0 -11.5 -5.149 -11.5 -11.5 z" fill="#7fe490" fill-opacity="1"/></g><g><path d="m 40.03 7.531 c 3.712 4.084 5.969 9.514 5.969 15.469 0 12.703 -10.297 23 -23 23 c -5.954 0 -11.384 -2.256 -15.469 -5.969 4.178 4.291 10.01 6.969 16.469 6.969 c 12.703 0 23 -10.298 23 -23 0 -6.462 -2.677 -12.291 -6.969 -16.469 z" opacity="0.1"/></g><g><circle cx="25" cy="25" r="12" opacity="1" fill="#000" fill-rule="nonzero" stroke="none" fill-opacity="0.098"/><g><circle cx="24" cy="24" r="12" opacity="1" fill="#4b4b4b" fill-rule="nonzero" stroke="none" fill-opacity="1"/><path d="m 24 14 c -5.523 0 -10 4.477 -10 10 0 5.523 4.477 10 10 10 l 0 -12 a 3 3 0 0 1 -3 -3 3 3 0 0 1 3 -3 l 0 -2 z m 0 2 0 6 a 3 3 0 0 0 3 -3 3 3 0 0 0 -3 -3 z m -5 8 a 3 3 0 0 1 3 3 3 3 0 0 1 -3 3 3 3 0 0 1 -3 -3 3 3 0 0 1 3 -3 z m 10 0 a 3 3 0 0 0 -3 3 3 3 0 0 0 3 3 3 3 0 0 0 3 -3 3 3 0 0 0 -3 -3 z" opacity="1" fill="#dedede" fill-rule="nonzero" stroke="none" fill-opacity="1"/></g></g></svg>
